packages/ffe-icons/icons/filled/md/tv_with_assistant.svg

<svg xmlns="http://www.w3.org/2000/svg" height="24" viewBox="0 -960 960 960" width="24"><path d="M420-464.616q14.692 0 25.038-10.346T455.384-500q0-14.692-10.346-25.038T420-535.384q-14.692 0-25.038 10.346T384.616-500q0 14.692 10.346 25.038T420-464.616Zm120 0q14.692 0 25.038-10.346T575.384-500q0-14.692-10.346-25.038T540-535.384q-14.692 0-25.038 10.346T504.616-500q0 14.692 10.346 25.038T540-464.616Zm-240 0q14.692 0 25.038-10.346T335.384-500q0-14.692-10.346-25.038T300-535.384q-14.692 0-25.038 10.346T264.616-500q0 14.692 10.346 25.038T300-464.616Zm360 0q14.692 0 25.038-10.346T695.384-500q0-14.692-10.346-25.038T660-535.384q-14.692 0-25.038 10.346T624.616-500q0 14.692 10.346 25.038T660-464.616ZM227-220.001l-20.846 59.076q-1.551 4.351-5.429 7.252-3.879 2.902-9.084 2.902h-4.461q-5.949 0-10.41-4.5t-4.461-10.5v-54.23q-29.827 0-51.067-21.241-21.241-21.24-21.241-51.067v-415.382q0-29.827 21.241-51.067 21.24-21.241 51.067-21.241h615.382q29.827 0 51.067 21.241 21.241 21.24 21.241 51.067v415.382q0 29.85-21.241 51.106-21.24 21.256-51.067 21.256v55.176q0 5.894-4.052 9.947-4.053 4.053-9.947 4.053h-5.385q-4.615 0-8.461-2.568t-5.385-6.971l-20.076-59.691H227Z"/></svg>

<svg xmlns="http://www.w3.org/2000/svg" height="24" viewBox="0 -960 960 960" width="24"><path d="M420-464.62q14.69 0 25.04-10.34 10.34-10.35 10.34-25.04t-10.34-25.04q-10.35-10.34-25.04-10.34t-25.04 10.34q-10.34 10.35-10.34 25.04t10.34 25.04q10.35 10.34 25.04 10.34Zm120 0q14.69 0 25.04-10.34 10.34-10.35 10.34-25.04t-10.34-25.04q-10.35-10.34-25.04-10.34t-25.04 10.34q-10.34 10.35-10.34 25.04t10.34 25.04q10.35 10.34 25.04 10.34Zm-240 0q14.69 0 25.04-10.34 10.34-10.35 10.34-25.04t-10.34-25.04q-10.35-10.34-25.04-10.34t-25.04 10.34q-10.34 10.35-10.34 25.04t10.34 25.04q10.35 10.34 25.04 10.34Zm360 0q14.69 0 25.04-10.34 10.34-10.35 10.34-25.04t-10.34-25.04q-10.35-10.34-25.04-10.34t-25.04 10.34q-10.34 10.35-10.34 25.04t10.34 25.04q10.35 10.34 25.04 10.34ZM227-220l-20.85 59.07q-1.55 4.36-5.43 7.26-3.87 2.9-9.08 2.9h-4.46q-5.95 0-10.41-4.5t-4.46-10.5V-220q-29.83 0-51.07-21.24Q100-262.48 100-292.31v-415.38q0-29.83 21.24-51.07Q142.48-780 172.31-780h615.38q29.83 0 51.07 21.24Q860-737.52 860-707.69v415.38q0 29.85-21.24 51.11-21.24 21.25-51.07 21.25v55.18q0 5.89-4.05 9.95-4.05 4.05-9.95 4.05h-5.38q-4.62 0-8.46-2.57-3.85-2.57-5.39-6.97L734.38-220H227Z"/></svg>
